static/icons/telegram.svg

<svg xmlns="http://www.w3.org/2000/svg" viewBox="0 0 24 24"><path d="M12.001 22C6.47813 22 2.00098 17.5228 2.00098 12C2.00098 6.47715 6.47813 2 12.001 2C17.5238 2 22.001 6.47715 22.001 12C22.001 17.5228 17.5238 22 12.001 22ZM8.89113 13.1708L8.90378 13.1628C9.48351 15.0767 9.77337 16.0337 9.77337 16.0337C9.88564 16.3442 10.04 16.3996 10.2273 16.3743C10.4145 16.3489 10.5139 16.2476 10.6361 16.1297C10.6361 16.1297 11.0324 15.7472 11.825 14.9823L14.3759 16.8698C14.8407 17.1266 15.1763 16.9941 15.2917 16.4377L16.9495 8.61641C17.1325 7.88842 16.8115 7.59644 16.247 7.82754L6.51397 11.5871C5.84996 11.854 5.85317 12.2255 6.39308 12.3911L8.89113 13.1708Z" fill="currentColor"></path></svg>

<svg xmlns="http://www.w3.org/2000/svg" viewBox="0 0 24 24"><path fill="currentColor" d="M12.001 22c-5.523 0-10-4.477-10-10s4.477-10 10-10 10 4.477 10 10-4.477 10-10 10m-3.11-8.83.013-.007.87 2.87c.112.311.266.367.453.341.188-.025.287-.126.41-.244l1.188-1.148 2.55 1.888c.466.257.801.124.917-.432l1.658-7.822c.183-.728-.139-1.02-.703-.788l-9.733 3.76c-.664.266-.66.638-.12.803z"/></svg>
